flaticon/casino-gambling/poker-40.svg

<svg xmlns="http://www.w3.org/2000/svg" width="32" height="32" viewBox="0 0 24 24">
    <path d="M 19.601562 0 L 4.398438 0 C 3.71875 0 3.199219 0.519531 3.199219 1.199219 L 3.199219 22.800781 C 3.199219 23.480469 3.71875 24 4.398438 24 L 19.601562 24 C 20.28125 24 20.800781 23.480469 20.800781 22.800781 L 20.800781 1.199219 C 20.800781 0.519531 20.28125 0 19.601562 0 Z M 20 22.800781 C 20 23.039062 19.839844 23.199219 19.601562 23.199219 L 4.398438 23.199219 C 4.160156 23.199219 4 23.039062 4 22.800781 L 4 1.199219 C 4 0.960938 4.160156 0.800781 4.398438 0.800781 L 19.601562 0.800781 C 19.839844 0.800781 20 0.960938 20 1.199219 Z M 20 22.800781"/>
    <path d="M6.679688 14.398438L12 21.039062 17.320312 14.398438 12 7.761719zM12 19.761719L7.71875 14.398438 12 9.039062 16.28125 14.398438zM8 5.199219L8 2.398438 8.398438 2.398438C8.640625 2.398438 8.800781 2.238281 8.800781 2 8.800781 1.761719 8.640625 1.601562 8.398438 1.601562L6.800781 1.601562C6.558594 1.601562 6.398438 1.761719 6.398438 2 6.398438 2.238281 6.558594 2.398438 6.800781 2.398438L7.199219 2.398438 7.199219 5.199219C7.199219 5.640625 6.839844 6 6.398438 6 5.960938 6 5.601562 5.640625 5.601562 5.199219 5.601562 4.960938 5.441406 4.800781 5.199219 4.800781 4.960938 4.800781 4.800781 4.960938 4.800781 5.199219 4.800781 6.078125 5.519531 6.800781 6.398438 6.800781 7.28125 6.800781 8 6.078125 8 5.199219zM8 5.199219"/>
</svg>

<svg xmlns="http://www.w3.org/2000/svg" width="32" height="32" viewBox="0 0 24 24">
    <path d="M19.602 0H4.398C3.718 0 3.2.52 3.2 1.2v21.6c0 .68.52 1.2 1.2 1.2h15.203c.68 0 1.199-.52 1.199-1.2V1.2c0-.68-.52-1.2-1.2-1.2zM20 22.8c0 .24-.16.4-.398.4H4.398c-.238 0-.398-.16-.398-.4V1.2c0-.24.16-.4.398-.4h15.204c.238 0 .398.16.398.4zm0 0"/>
    <path d="M6.68 14.398L12 21.04l5.32-6.64L12 7.761zM12 19.762l-4.281-5.364L12 9.04l4.281 5.36zm0 0M8 5.2V2.397h.398c.243 0 .403-.16.403-.398 0-.238-.16-.398-.403-.398H6.801c-.242 0-.403.16-.403.398 0 .238.16.398.403.398h.398V5.2c0 .442-.36.801-.8.801a.801.801 0 0 1-.797-.8c0-.24-.16-.4-.403-.4-.238 0-.398.16-.398.4 0 .878.719 1.6 1.597 1.6C7.281 6.8 8 6.079 8 5.2zm0 0"/>
</svg>
